X:1
T:Komm, liebe Zither, komm KV 351
T:Komm, liebe Zither, komm KV 351
T:Lied for one voice with mandolin accompaniment
T:W. A. Mozart
T:by Mutopia
T:by Mutopia
C:W. A. Mozart
Z:by Mutopia
%%score 1 2
L:1/8
Q:1/4=67
M:6/8
K:C
V:1 treble nm="Voice"
V:2 treble nm="Mandolin"
V:1
"^Mäßig" z6 | z6 | z2 z z2 |S G | c2 c cB c | A2 z z2 A | df d BA B | (B2 c) G2 z | c3- c B A | %9
w: |||Komm,|lie be Zi- * ther,|komm, du|Freun- * din stil- * ler|Lie- * be,|du _ sollst auch|
w: |||Sag'|ihr an mei- * ner|Statt, Ich|darf' s ihr noch * nicht|sa- * gen,|Wie * ihr so|
 dg B dc A | G3 z2 z | z6 | z2 z z2 G | d2 d dcd | e3 c2 B | (AB) c (de) f | (c2 d) B2 G | %17
w: mei- * ne- Freun- * din|sein.||Komm,|dir ver trau' _ _|ich die ge\-|heim- * sten mei- * ner|Trie- * be, nur|
w: ganz * mein Herz * ge\-|hört;||Sag'|ihr an mei- * *|ner Statt, Ich|darf' s ihr noch * nicht|kla- * gen, Wie|
 e3- (ed) c | A2 d c2 B | e3- e d c | d2 e/f/ c2 B | c2 z z2 z | z6 | z2 z z2!D.S.! |] %24
w: dir _ _ ver\-|trau' ich mei\- ne|Pein _ ,~dir ver|trau' ich * mei- ne-|Pein.|||
w: sich * * für|sie mein Herz ver\-|zehrt _ ,~sich für|sie mein * Herz ver\-|zehrt.|||
V:2
 ceg c'/a/g/f/e/d/ | c/e/A/c/G/c/ F/A/d/f/G/B/ | c[CEc][CEc] [CEc]2 | z | %4
 E/c/g/c/E/c/ E/c/g/c/E/c/ | F [Fca][Fca] [Fca]2 z | F/d/a/d/F/d/ G/d/b/d/G/d/ | %7
 G/B/c/d/e/f/ e/f/e/d/c/B/ | [DA^f][DAf][DAf] [DAf]3 | G/B/d/B/G/B/ D/^F/A/F/D/F/ | %10
 G/g/b/g/^f/g/ e/g/d/g/c/g/ | B/g/g/g/e/g/ c/a/a/a/d/^f/ | g/e/d/c/B/A/ G3 | %13
 G/B/d/g/d/B/ G/g/g/g/g/g/ | c/e/g/e/c/G/ E/G/c/G/E/G/ | F/A/c/A/F/A/ F/A/d/A/F/A/ | %16
 G/g/g/g/g/g/ G/A/G/F/E/D/ | C/E/G/c/e/g/ c'3 | F/A/c/f/a/f/ e/g/c/e/G/B/ | %19
 C/E/G/c/e/g/ c'/c'/c'/c'/c'/c'/ | F/d/f/d/F/d/ G/c/e/c/G/G/ | c/c/e/c/B/c/ A/c/G/c/F/c/ | %22
 E/G/c/e/g/c'/ a/f/d/B/G/B/ | c[CEc][CEc] [CEc]2 |] %24

